X: 21482
T: SUCKY BIDS ME -- Reel
R: reel
B: K\"ohler's Violin Repository, v.2, 1885 p.148 #2
F: http://www.archive.org/details/klersviolinrepos02rugg
Z: 2012 John Chambers <jc:trillian.mit.edu>
M: C|
L: 1/8
K: G
|: vG2(DE) G2e2 | dBGB AFED | TG2(DE) G2e2 | dBcA G2G2 :|
[| vd2(Bc) d2g2 | fafd .e.ge^c | d2(Bc) d2g2 | (fg)fe d3(e |
   d)(gfe) dcBG | B2(BG) AFED | G2(DE) G2e2 | (dB)cA G2z2 |]

%%sep 2 1 500

